!! 00000] TT[00
!! NN
!!!OTL: Shili changchong hao fengguang
!!!ARE: Asia, China,ÿAnhui, Lujiang(Sued)
!! Ethnic Group: Han
!! III, 524
!!!SCT: C0336
!!!YEM: Copyright 1995, estate of Helmut Schaffrath.
**kern
*ICvox
*Ivox
*M2/4
*k[f#]
*G:
{8a
8b
8dd
8ee
=1
4.b
8dd
=2
8a
8b
8dd
8ee
=3
2b}
=4
{8.a
16dd
8dd
8b
=5
8a
8g
8e
8d
=6
8g
16g
16e
8g
8b
=7
2a}
=8
{4g
4a
=9
8.e
16g
8d
8e
=10
8g
8e
8g
8b
=11
2a}
=12
{4d
8d
8e
=13
4g
8g
8e
=14
8a
8dd
8b
8a
=15
2g}
=16
{4dd
8dd
8b
=17
8b
8a
4g
=18
8a
16b
16a
8g
8e
=19
8e
8g
8.e
16d
=20
2e}
=21
{8b
8b
8b
8dd
=22
4ee
8dd
8b
=23
8a
8b
8dd
8ee
=24
8b
8a
8g
8e
=25
4a}
{4a
=26
8b
16a
16b
8dd
8b
=27
4.a
8b
=28
8a
8g
4a}
==
!!!AGN: Xiaodiao. Xin minge
!! alte Melodie, neuer Text
!!    Vereinzelt Verzierungen. Vor- und Nachspiel weggelassen.
!!!ONB: ESAC (Essen Associative Code) Database: CHINA
!!!AMT: simple duple
!!!AIN: vox
!!!EED: Helmut Schaffrath
!!!EEV: 1.0
*-
